assets/img/braze_icons/bell-minus.svg

<svg fill="none" height="24" viewBox="0 0 24 24" width="24" xmlns="http://www.w3.org/2000/svg"><g fill="#801ed7"><path clip-rule="evenodd" d="m14 5c0-.55228.4477-1 1-1h6c.5523 0 1 .44772 1 1s-.4477 1-1 1h-6c-.5523 0-1-.44772-1-1z" fill-rule="evenodd"/><path d="m12 1c-1.8565 0-3.63701.7375-4.94977 2.05025-1.31275 1.31276-2.05025 3.09323-2.05025 4.94975 0 2.9127-.732 4.8439-1.49938 6.0771l-.0118.019c-.35732.5742-.6398 1.0282-.83023 1.3586-.09542.1655-.18235.325-.24671.4668-.03213.0707-.06807.1575-.09617.2518-.0233.0782-.0677.2454-.05106.449.01119.1368.03909.3705.17324.612s.31788.3887.42812.4704c.25029.1857.53772.2282.63365.2423l.00443.0007c.14741.0218.31468.0327.48344.0392.33518.0131.79918.0131 1.37622.0131h13.27207c.5771 0 1.0415 0 1.3767-.0131.1687-.0065.336-.0174.4834-.0392l.0044-.0007c.096-.0141.3834-.0566.6337-.2423.1102-.0817.2939-.2289.4281-.4704.1341-.2415.162-.4752.1732-.612.0167-.2036-.0277-.3708-.051-.449-.0281-.0943-.0641-.1811-.0962-.2518-.0644-.1418-.1513-.3013-.2467-.4668-.1904-.3304-.4728-.7842-.83-1.3582l-.012-.0194c-.7674-1.2332-1.4994-3.1644-1.4994-6.0771h-4c-1.6569 0-3-1.34315-3-3s1.3431-3 3-3c.1703 0 .2266-.21432.0737-.28908-.9483-.46344-1.9983-.71092-3.0737-.71092z"/><path d="m10.0159 20.2503c-.41408-.3655-1.04602-.3261-1.41148.088-.36547.414-.32607 1.046.088 1.4114.88081.7775 2.04018 1.2503 3.30758 1.2503s2.4267-.4728 3.3075-1.2503c.4141-.3654.4535-.9974.088-1.4114-.3654-.4141-.9974-.4535-1.4114-.088-.5295.4673-1.2226.7497-1.9841.7497s-1.4547-.2824-1.9841-.7497z"/></g></svg>

<svg width="24" height="24" viewBox="0 0 24 24" fill="none" xmlns="http://www.w3.org/2000/svg">
<path fill-rule="evenodd" clip-rule="evenodd" d="M14 5C14 4.44772 14.4477 4 15 4H21C21.5523 4 22 4.44772 22 5C22 5.55228 21.5523 6 21 6H15C14.4477 6 14 5.55228 14 5Z" fill="#801ED7"/>
<path d="M12 1C10.1435 1 8.36299 1.7375 7.05023 3.05025C5.73748 4.36301 4.99998 6.14348 4.99998 8C4.99998 10.9127 4.26798 12.8439 3.5006 14.0771L3.4888 14.0961C3.13148 14.6703 2.849 15.1243 2.65857 15.4547C2.56315 15.6202 2.47622 15.7797 2.41186 15.9215C2.37973 15.9922 2.34379 16.079 2.31569 16.1733C2.29239 16.2515 2.24799 16.4187 2.26463 16.6223C2.27582 16.7591 2.30372 16.9928 2.43787 17.2343C2.57202 17.4758 2.75575 17.623 2.86599 17.7047C3.11628 17.8904 3.40371 17.9329 3.49964 17.947L3.50407 17.9477C3.65148 17.9695 3.81875 17.9804 3.98751 17.9869C4.32269 18 4.78669 18 5.36373 18H18.6358C19.2129 18 19.6773 18 20.0125 17.9869C20.1812 17.9804 20.3485 17.9695 20.4959 17.9477L20.5003 17.947C20.5963 17.9329 20.8837 17.8904 21.134 17.7047C21.2442 17.623 21.4279 17.4758 21.5621 17.2343C21.6962 16.9928 21.7241 16.7591 21.7353 16.6223C21.752 16.4187 21.7076 16.2515 21.6843 16.1733C21.6562 16.079 21.6202 15.9922 21.5881 15.9215C21.5237 15.7797 21.4368 15.6202 21.3414 15.4547C21.151 15.1243 20.8686 14.6705 20.5114 14.0965L20.4994 14.0771C19.732 12.8439 19 10.9127 19 8H15C13.3431 8 12 6.65685 12 5C12 3.34315 13.3431 2 15 2C15.1703 2 15.2266 1.78568 15.0737 1.71092C14.1254 1.24748 13.0754 1 12 1Z" fill="#801ED7"/>
<path d="M10.0159 20.2503C9.60182 19.8848 8.96988 19.9242 8.60442 20.3383C8.23895 20.7523 8.27835 21.3843 8.69242 21.7497C9.57323 22.5272 10.7326 23 12 23C13.2674 23 14.4267 22.5272 15.3075 21.7497C15.7216 21.3843 15.761 20.7523 15.3955 20.3383C15.0301 19.9242 14.3981 19.8848 13.9841 20.2503C13.4546 20.7176 12.7615 21 12 21C11.2385 21 10.5453 20.7176 10.0159 20.2503Z" fill="#801ED7"/>
</svg>
